Obsidian-SemiLight/actions/22s/labplot-xy-fourier-transform-curve.svg

<svg viewBox="0 0 22 22" xmlns="http://www.w3.org/2000/svg"><path d="m2 3v1 7 1 7h1v-7h8v5 1h9v-1-6h-8v-7h-9v-1zm1 2h8v6h-8zm9 7h7v5h-7z" fill="#4d4d4d"/><path d="m7 3c-.9044199 0-1.6369417.6034832-2.2304688 1.3652344-.593527.7617512-1.0839051 1.7305249-1.4882812 2.6914062-.8087522 1.9217628-1.2675781 3.8261714-1.2675781 3.8261714l.9726562.234376s.4474039-1.8455914 1.2167969-3.6738286c.3846965-.9141187.8513471-1.820345 1.3535156-2.4648438.5001406-.6418961.9994888-.9719176 1.4375-.9746094.4208002.013779.7829782.1849883 1.15625.5429688.3758235.3604276.7398764.9081422 1.0761719 1.5878906.6725911 1.3594969 1.2345245 3.2261636 1.7968755 5.1015624.56235 1.875399 1.123821 3.759112 1.859374 5.214844.367777.727866.778279 1.354826 1.28711 1.816406.50725.460146 1.13933.747934 1.83789.730469.876622-.0041 1.542608-.633925 2.03125-1.402344.490232-.770918.856353-1.740786 1.142579-2.703125.572451-1.924677.814453-3.828125.814453-3.828125l-.992188-.128906s-.238349 1.846552-.78125 3.671875c-.27145.912661-.623332 1.817793-1.027344 2.453125-.404011.635332-.806864.939453-1.195312.939453h-.0078-.0059c-.423606.01175-.774786-.139225-1.144503-.474609-.369717-.335385-.731474-.862528-1.066406-1.525391-.669865-1.325726-1.232773-3.176055-1.794922-5.050781-.562149-1.8747265-1.123182-3.773705-1.857422-5.2578128-.3671204-.7420538-.7774654-1.3840406-1.2812501-1.8671874-.5037848-.4831469-1.1264282-.8049361-1.828125-.8242188h-.0058594z" fill="#3daee9"/></svg>

<svg xmlns="http://www.w3.org/2000/svg" viewBox="0 0 22 22">
  <defs id="defs3051">
    <style type="text/css" id="current-color-scheme">
      .ColorScheme-Text {
        color:#4d4d4d;
      }
      .ColorScheme-Highlight {
        color:#3daee9;
      }
      </style>
  </defs>
 <path 
     style="fill:currentColor;fill-opacity:1;stroke:none" 
     d="M 2 3 L 2 4 L 2 11 L 2 12 L 2 19 L 3 19 L 3 12 L 11 12 L 11 17 L 11 18 L 20 18 L 20 17 L 20 11 L 12 11 L 12 4 L 3 4 L 3 3 L 2 3 z M 3 5 L 11 5 L 11 11 L 3 11 L 3 5 z M 12 12 L 19 12 L 19 17 L 12 17 L 12 12 z "
     class="ColorScheme-Text"
     />
 <path 
     style="fill:currentColor;fill-opacity:1;stroke:none" 
     d="M 7,3 C 6.0955801,3 5.3630583,3.6034832 4.7695312,4.3652344 4.1760042,5.1269856 3.6856261,6.0957593 3.28125,7.0566406 2.4724978,8.9784034 2.0136719,10.882812 2.0136719,10.882812 l 0.9726562,0.234376 c 0,0 0.4474039,-1.8455914 1.2167969,-3.6738286 0.3846965,-0.9141187 0.8513471,-1.820345 1.3535156,-2.4648438 0.5001406,-0.6418961 0.9994888,-0.9719176 1.4375,-0.9746094 0.4208002,0.013779 0.7829782,0.1849883 1.15625,0.5429688 0.3758235,0.3604276 0.7398764,0.9081422 1.0761719,1.5878906 0.6725911,1.3594969 1.2345245,3.2261636 1.7968755,5.1015624 0.56235,1.875399 1.123821,3.759112 1.859374,5.214844 0.367777,0.727866 0.778279,1.354826 1.28711,1.816406 0.50725,0.460146 1.13933,0.747934 1.83789,0.730469 0.876622,-0.0041 1.542608,-0.633925 2.03125,-1.402344 0.490232,-0.770918 0.856353,-1.740786 1.142579,-2.703125 0.572451,-1.924677 0.814453,-3.828125 0.814453,-3.828125 l -0.992188,-0.128906 c 0,0 -0.238349,1.846552 -0.78125,3.671875 -0.27145,0.912661 -0.623332,1.817793 -1.027344,2.453125 C 16.791301,17.695879 16.388448,18 16,18 l -0.0078,0 -0.0059,0 C 15.562694,18.01175 15.211514,17.860775 14.841797,17.525391 14.47208,17.190006 14.110323,16.662863 13.775391,16 13.105526,14.674274 12.542618,12.823945 11.980469,10.949219 11.41832,9.0744925 10.857287,7.175514 10.123047,5.6914062 9.7559266,4.9493524 9.3455816,4.3073656 8.8417969,3.8242188 8.3380121,3.3410719 7.7153687,3.0192827 7.0136719,3 L 7.0078125,3 7,3 Z"
     class="ColorScheme-Highlight"
     />
</svg>
